; generated by PrusaSlicer 2.4.2 on 2022-06-06 at 22:59:26 UTC

; 

; external perimeters extrusion width = 0.90mm
; perimeters extrusion width = 0.90mm
; infill extrusion width = 0.90mm
; solid infill extrusion width = 0.90mm
; top infill extrusion width = 0.80mm
; first layer extrusion width = 0.40mm

; external perimeters extrusion width = 0.90mm
; perimeters extrusion width = 0.90mm
; infill extrusion width = 0.90mm
; solid infill extrusion width = 0.90mm
; top infill extrusion width = 0.80mm
; first layer extrusion width = 0.40mm

; external perimeters extrusion width = 0.90mm
; perimeters extrusion width = 0.90mm
; infill extrusion width = 0.90mm
; solid infill extrusion width = 0.90mm
; top infill extrusion width = 0.80mm
; first layer extrusion width = 0.40mm

; external perimeters extrusion width = 0.90mm
; perimeters extrusion width = 0.90mm
; infill extrusion width = 0.90mm
; solid infill extrusion width = 0.90mm
; top infill extrusion width = 0.80mm
; first layer extrusion width = 0.40mm

; external perimeters extrusion width = 0.90mm
; perimeters extrusion width = 0.90mm
; infill extrusion width = 0.90mm
; solid infill extrusion width = 0.90mm
; top infill extrusion width = 0.80mm
; first layer extrusion width = 0.40mm

M107
M190 S115 ; set bed temperature and wait for it to be reached
;TYPE:Custom
M109 S155; FAZ AQUECIMENTO DO BICO
M104 S255; FAZ PRE AQUECIMENTO DO BICO
M402
G28; HOME GERAL
M400
G29 V4 T; AUTO NIVELAMENTO
M400
G1 X-8 Y100 Z0.8 F3000; VAI PARA PONTO DE PURGA
M109 S255; FAZ AQUECIMENTO DO BICO
G92 E0; RESETA EXTRUSOR
G1 E30 F200; PURGA FILAMENTO
G92 E0;  RESETA EXTRUSOR
G1 E-3; RETIRA PRESSAO DO BICO
G1 Z1 F3000;
G1 X10 Y10 Z0.3 F3000; MOVIMENTO PRA SOLTAR PURGA
G1 X0 Y30 Z1 F10000; MOVIMENTO PRA SOLTAR PURGA
G1 X10 Y10 Z0.3 F10000; MOVIMENTO PARA SOLTAR PURGA
G1 Z5 F3000
; IMPRIMINDO...
G21 ; set units to millimeters
G90 ; use absolute coordinates
M82 ; use absolute distances for extrusion
G92 E0
; Filament gcode
M107
;LAYER_CHANGE
;Z:0.2
;HEIGHT:0.2
G1 E-5 F2400
G92 E0
G1 Z.5 F10800
G1 X13.497 Y14.343
G1 Z.2
G1 E5 F2400
;TYPE:Skirt/Brim
;WIDTH:0.4
G1 F1800
G1 X14.542 Y13.474 E5.07261
G1 X15.463 Y13.286 E5.12284
G1 X115.463 Y13.286 E10.46728
G1 X116.084 Y13.37 E10.50079
G1 X131.084 Y17.47 E11.33186
G1 X132.236 Y18.19 E11.40447
G1 X132.82 Y19.743 E11.49314
G1 X132.82 Y22.893 E11.66149
G1 X132.37 Y24.278 E11.73927
G1 X116.12 Y46.675 E13.21818
G1 X115.308 Y47.445 E13.27798
G1 X114.431 Y47.867 E13.32998
G1 X113.53 Y48.022 E13.37882
G1 X98.773 Y48.649 E14.16821
G1 X17.303 Y48.584 E18.52235
G1 X16.002 Y48.191 E18.59496
G1 X15.135 Y47.145 E18.66757
G1 X14.96 Y46.452 E18.70578
G1 X13.106 Y26.993 E19.75045
G1 X13.106 Y15.643 E20.35704
G1 X13.462 Y14.457 E20.42323
;WIPE_START
G1 F8640
G1 X14.542 Y13.474 E20.03792
G1 X15.463 Y13.286 E19.78988
G1 X31.063 Y13.286 E15.67323
;WIPE_END
G1 E15.42323 F2400
G92 E0
G1 Z.7 F10800
G1 X18.42 Y36.341
G1 Z.2
G1 E5 F2400
;TYPE:Perimeter
G1 F1800
G1 X32.692 Y36.341 E5.76274
G1 X32.692 Y45.113 E6.23154
G1 X18.42 Y45.113 E6.99428
G1 X18.42 Y36.461 E7.45666
G1 X18.063 Y35.984 F10800
G1 F1800
G1 X33.049 Y35.984 E8.25757
G1 X33.049 Y45.47 E8.76454
G1 X18.063 Y45.47 E9.56544
G1 X18.063 Y36.104 E10.06599
G1 X17.706 Y35.627 F10800
;TYPE:External perimeter
G1 F1800
G1 X33.406 Y35.627 E10.90507
G1 X33.406 Y45.827 E11.4502
G1 X17.706 Y45.827 E12.28928
G1 X17.706 Y35.747 E12.828
G1 X18.491 Y35.78 F10800
;WIPE_START
G1 F8640
G1 X33.406 Y35.627 E8.68482
G1 X33.406 Y37.927 E8.078
;WIPE_END
G1 E7.828 F2400
G92 E0
G1 Z.7 F10800
G1 X32.585 Y37.186
G1 Z.2
G1 E5 F2400
;TYPE:Solid infill
;WIDTH:0.407503
G1 F1800
G1 X32.008 Y36.609 E5.04453
G1 X31.492 Y36.609 E5.07267
G1 X32.424 Y37.541 E5.14459
G1 X32.424 Y38.057 E5.17272
G1 X30.977 Y36.609 E5.28443
G1 X30.461 Y36.609 E5.31257
G1 X32.424 Y38.572 E5.46407
G1 X32.424 Y39.088 E5.4922
G1 X29.945 Y36.609 E5.68349
G1 X29.43 Y36.609 E5.71162
G1 X32.424 Y39.604 E5.9427
G1 X32.424 Y40.119 E5.97084
G1 X28.914 Y36.609 E6.2417
G1 X28.399 Y36.609 E6.26984
G1 X32.424 Y40.635 E6.58049
G1 X32.424 Y41.15 E6.60862
G1 X27.883 Y36.609 E6.95907
G1 X27.367 Y36.609 E6.9872
G1 X32.424 Y41.666 E7.37743
G1 X32.424 Y42.182 E7.40557
G1 X26.852 Y36.609 E7.83559
G1 X26.336 Y36.609 E7.86372
G1 X32.424 Y42.697 E8.33353
G1 X32.424 Y43.213 E8.36166
G1 X25.821 Y36.609 E8.87126
G1 X25.305 Y36.609 E8.89939
G1 X32.424 Y43.728 E9.44878
G1 X32.424 Y44.244 E9.47691
G1 X24.789 Y36.609 E10.06609
G1 X24.274 Y36.609 E10.09422
G1 X32.424 Y44.759 E10.72319
G1 X32.424 Y44.845 E10.72786
G1 X31.994 Y44.845 E10.75132
G1 X23.758 Y36.609 E11.3869
G1 X23.243 Y36.609 E11.41503
G1 X31.479 Y44.845 E12.05061
G1 X30.963 Y44.845 E12.07875
G1 X22.727 Y36.609 E12.71433
G1 X22.211 Y36.609 E12.74246
G1 X30.447 Y44.845 E13.37804
G1 X29.932 Y44.845 E13.40617
G1 X21.696 Y36.609 E14.04175
G1 X21.18 Y36.609 E14.06989
G1 X29.416 Y44.845 E14.70547
G1 X28.901 Y44.845 E14.7336
G1 X20.665 Y36.609 E15.36918
G1 X20.149 Y36.609 E15.39731
G1 X28.385 Y44.845 E16.03289
G1 X27.869 Y44.845 E16.06103
G1 X19.633 Y36.609 E16.6966
G1 X19.118 Y36.609 E16.72474
G1 X27.354 Y44.845 E17.36032
G1 X26.838 Y44.845 E17.38845
G1 X18.688 Y36.695 E18.01741
G1 X18.688 Y37.211 E18.04554
G1 X26.323 Y44.845 E18.63471
G1 X25.807 Y44.845 E18.66284
G1 X18.688 Y37.726 E19.21222
G1 X18.688 Y38.242 E19.24035
G1 X25.291 Y44.845 E19.74994
G1 X24.776 Y44.845 E19.77807
G1 X18.688 Y38.757 E20.24787
G1 X18.688 Y39.273 E20.27601
G1 X24.26 Y44.845 E20.70602
G1 X23.745 Y44.845 E20.73415
G1 X18.688 Y39.789 E21.12437
G1 X18.688 Y40.304 E21.15251
G1 X23.229 Y44.845 E21.50294
G1 X22.713 Y44.845 E21.53107
G1 X18.688 Y40.82 E21.84172
G1 X18.688 Y41.335 E21.86985
G1 X22.198 Y44.845 E22.14071
G1 X21.682 Y44.845 E22.16884
G1 X18.688 Y41.851 E22.39991
G1 X18.688 Y42.367 E22.42805
G1 X21.167 Y44.845 E22.61932
G1 X20.651 Y44.845 E22.64746
G1 X18.688 Y42.882 E22.79895
G1 X18.688 Y43.398 E22.82708
G1 X20.135 Y44.845 E22.93878
G1 X19.62 Y44.845 E22.96692
G1 X18.688 Y43.913 E23.03883
G1 X18.688 Y44.429 E23.06696
G1 X19.265 Y45.006 E23.11149
;WIPE_START
G1 F8640
G1 X18.688 Y44.429 E22.89617
G1 X18.688 Y43.913 E22.76011
G1 X19.62 Y44.845 E22.41234
G1 X20.135 Y44.845 E22.27628
G1 X18.688 Y43.398 E21.7361
G1 X18.688 Y42.882 E21.60003
G1 X20.651 Y44.845 E20.86743
G1 X21.167 Y44.845 E20.73137
G1 X18.688 Y42.367 E19.80634
G1 X18.688 Y41.851 E19.67028
G1 X21.682 Y44.845 E18.55284
G1 X22.198 Y44.845 E18.41678
G1 X22.05 Y44.697 E18.36149
;WIPE_END
G1 E18.11149 F2400
G92 E0
G1 Z.7 F10800
G1 X40.811 Y45.122
G1 Z.2
G1 E5 F2400
;TYPE:Perimeter
;WIDTH:0.4
G1 F1800
G1 X40.811 Y36.351 E5.4688
G1 X55.083 Y36.351 E6.23154
G1 X55.083 Y45.122 E6.70033
G1 X40.931 Y45.122 E7.45666
G1 X40.454 Y45.479 F10800
G1 F1800
G1 X40.454 Y35.994 E7.96363
G1 X55.44 Y35.994 E8.76454
G1 X55.44 Y45.479 E9.2715
G1 X40.574 Y45.479 E10.06599
G1 X40.097 Y45.837 F10800
;TYPE:External perimeter
G1 F1800
G1 X40.097 Y35.637 E10.61113
G1 X55.797 Y35.637 E11.4502
G1 X55.797 Y45.837 E11.99534
G1 X40.217 Y45.837 E12.828
G1 X40.358 Y45.08 F10800
;WIPE_START
G1 F8640
G1 X40.097 Y35.637 E10.13615
G1 X47.896 Y35.637 E8.078
;WIPE_END
G1 E7.828 F2400
G92 E0
G1 Z.7 F10800
G1 X54.976 Y37.196
G1 Z.2
G1 E5 F2400
;TYPE:Solid infill
;WIDTH:0.407503
G1 F1800
G1 X54.399 Y36.619 E5.04453
G1 X53.883 Y36.619 E5.07267
G1 X54.815 Y37.55 E5.14459
G1 X54.815 Y38.066 E5.17272
G1 X53.368 Y36.619 E5.28443
G1 X52.852 Y36.619 E5.31257
G1 X54.815 Y38.582 E5.46407
G1 X54.815 Y39.097 E5.4922
G1 X52.336 Y36.619 E5.68349
G1 X51.821 Y36.619 E5.71162
G1 X54.815 Y39.613 E5.9427
G1 X54.815 Y40.128 E5.97084
G1 X51.305 Y36.619 E6.2417
G1 X50.79 Y36.619 E6.26984
G1 X54.815 Y40.644 E6.58049
G1 X54.815 Y41.16 E6.60862
G1 X50.274 Y36.619 E6.95907
G1 X49.758 Y36.619 E6.9872
G1 X54.815 Y41.675 E7.37743
G1 X54.815 Y42.191 E7.40557
G1 X49.243 Y36.619 E7.83559
G1 X48.727 Y36.619 E7.86372
G1 X54.815 Y42.706 E8.33353
G1 X54.815 Y43.222 E8.36166
G1 X48.212 Y36.619 E8.87126
G1 X47.696 Y36.619 E8.89939
G1 X54.815 Y43.738 E9.44878
G1 X54.815 Y44.253 E9.47691
G1 X47.18 Y36.619 E10.06609
G1 X46.665 Y36.619 E10.09422
G1 X54.815 Y44.769 E10.72319
G1 X54.815 Y44.855 E10.72786
G1 X54.385 Y44.855 E10.75132
G1 X46.149 Y36.619 E11.3869
G1 X45.634 Y36.619 E11.41503
G1 X53.87 Y44.855 E12.05061
G1 X53.354 Y44.855 E12.07875
G1 X45.118 Y36.619 E12.71433
G1 X44.602 Y36.619 E12.74246
G1 X52.839 Y44.855 E13.37804
G1 X52.323 Y44.855 E13.40617
G1 X44.087 Y36.619 E14.04175
G1 X43.571 Y36.619 E14.06989
G1 X51.807 Y44.855 E14.70547
G1 X51.292 Y44.855 E14.7336
G1 X43.056 Y36.619 E15.36918
G1 X42.54 Y36.619 E15.39731
G1 X50.776 Y44.855 E16.03289
G1 X50.261 Y44.855 E16.06103
G1 X42.024 Y36.619 E16.6966
G1 X41.509 Y36.619 E16.72474
G1 X49.745 Y44.855 E17.36032
G1 X49.229 Y44.855 E17.38845
G1 X41.079 Y36.704 E18.01741
G1 X41.079 Y37.22 E18.04554
G1 X48.714 Y44.855 E18.63471
G1 X48.198 Y44.855 E18.66284
G1 X41.079 Y37.736 E19.21222
G1 X41.079 Y38.251 E19.24035
G1 X47.683 Y44.855 E19.74994
G1 X47.167 Y44.855 E19.77807
G1 X41.079 Y38.767 E20.24787
G1 X41.079 Y39.282 E20.27601
G1 X46.651 Y44.855 E20.70602
G1 X46.136 Y44.855 E20.73415
G1 X41.079 Y39.798 E21.12437
G1 X41.079 Y40.314 E21.15251
G1 X45.62 Y44.855 E21.50294
G1 X45.105 Y44.855 E21.53107
G1 X41.079 Y40.829 E21.84172
G1 X41.079 Y41.345 E21.86985
G1 X44.589 Y44.855 E22.14071
G1 X44.073 Y44.855 E22.16884
G1 X41.079 Y41.86 E22.39991
G1 X41.079 Y42.376 E22.42805
G1 X43.558 Y44.855 E22.61932
G1 X43.042 Y44.855 E22.64746
G1 X41.079 Y42.892 E22.79895
G1 X41.079 Y43.407 E22.82708
G1 X42.527 Y44.855 E22.93878
G1 X42.011 Y44.855 E22.96692
G1 X41.079 Y43.923 E23.03883
G1 X41.079 Y44.438 E23.06696
G1 X41.656 Y45.015 E23.11149
;WIPE_START
G1 F8640
G1 X41.079 Y44.438 E22.89617
G1 X41.079 Y43.923 E22.76011
G1 X42.011 Y44.855 E22.41234
G1 X42.527 Y44.855 E22.27628
G1 X41.079 Y43.407 E21.7361
G1 X41.079 Y42.892 E21.60003
G1 X43.042 Y44.855 E20.86743
G1 X43.558 Y44.855 E20.73137
G1 X41.079 Y42.376 E19.80634
G1 X41.079 Y41.86 E19.67028
G1 X44.073 Y44.855 E18.55284
G1 X44.589 Y44.855 E18.41678
G1 X44.441 Y44.706 E18.36149
;WIPE_END
G1 E18.11149 F2400
G92 E0
G1 Z.7 F10800
G1 X82.592 Y17.529
G1 Z.2
G1 E5 F2400
;TYPE:Perimeter
;WIDTH:0.4
G1 F1800
G1 X82.592 Y20.858 E5.17788
G1 X129.348 Y20.858 E7.67674
G1 X129.348 Y21.779 E7.726
G1 X82.592 Y21.779 E10.22487
G1 X82.592 Y25.108 E10.40275
G1 X114.348 Y25.108 E12.09995
G1 X114.348 Y25.879 E12.14119
G1 X16.577 Y25.879 E17.36653
G1 X16.577 Y16.758 E17.85404
G1 X114.348 Y16.758 E23.07938
G1 X114.348 Y17.529 E23.12062
G1 X82.712 Y17.529 E24.81141
G1 X82.949 Y18.243 F10800
G1 F1800
G1 X82.949 Y20.501 E24.93204
G1 X129.706 Y20.501 E27.4309
G1 X129.706 Y22.136 E27.51833
G1 X82.949 Y22.136 E30.01719
G1 X82.949 Y24.751 E30.1569
G1 X114.706 Y24.751 E31.8541
G1 X114.706 Y26.236 E31.93351
G1 X16.22 Y26.236 E37.19702
G1 X16.22 Y16.401 E37.72269
G1 X114.706 Y16.401 E42.9862
G1 X114.706 Y17.886 E43.06561
G1 X82.949 Y17.886 E44.76281
G1 X82.949 Y18.123 E44.77548
G1 X83.306 Y18.243 F10800
;TYPE:External perimeter
G1 F1800
G1 X83.306 Y20.143 E44.87703
G1 X130.063 Y20.143 E47.37589
G1 X130.063 Y22.493 E47.50149
G1 X83.306 Y22.493 E50.00035
G1 X83.306 Y24.393 E50.1019
G1 X115.063 Y24.393 E51.7991
G1 X115.063 Y26.593 E51.91668
G1 X15.863 Y26.593 E57.21835
G1 X15.863 Y16.043 E57.78219
G1 X115.063 Y16.043 E63.08387
G1 X115.063 Y18.243 E63.20145
G1 X83.426 Y18.243 E64.89223
G1 X82.506 Y18.262 F10800
G1 X82.485 Y17.769
;TYPE:Solid infill
;WIDTH:0.401771
G1 F1800
G1 X81.742 Y17.025 E64.9487
G1 X81.234 Y17.025 E64.97596
G1 X82.324 Y18.116 E65.05877
G1 X82.324 Y18.623 E65.08603
G1 X80.727 Y17.025 E65.20739
G1 X80.219 Y17.025 E65.23464
G1 X82.324 Y19.131 E65.39455
G1 X82.324 Y19.638 E65.42181
G1 X79.712 Y17.025 E65.62026
G1 X79.204 Y17.025 E65.64752
G1 X82.324 Y20.146 E65.88452
G1 X82.324 Y20.653 E65.91178
G1 X78.697 Y17.025 E66.18733
G1 X78.189 Y17.025 E66.21458
G1 X82.146 Y20.982 E66.51512
G1 X82.146 Y21.49 E66.54238
G1 X77.682 Y17.025 E66.88146
G1 X77.174 Y17.025 E66.90872
G1 X82.324 Y22.176 E67.29991
G1 X82.324 Y22.683 E67.32716
G1 X76.667 Y17.025 E67.7569
G1 X76.159 Y17.025 E67.78416
G1 X82.324 Y23.191 E68.25244
G1 X82.324 Y23.698 E68.2797
G1 X75.652 Y17.025 E68.78653
G1 X75.144 Y17.025 E68.81379
G1 X82.324 Y24.206 E69.35917
G1 X82.324 Y24.713 E69.38643
G1 X74.637 Y17.025 E69.97036
G1 X74.129 Y17.025 E69.99761
G1 X82.146 Y25.042 E70.60653
G1 X82.146 Y25.549 E70.63379
G1 X73.622 Y17.025 E71.28125
G1 X73.114 Y17.025 E71.3085
G1 X81.7 Y25.611 E71.96068
G1 X81.193 Y25.611 E71.98793
G1 X72.607 Y17.025 E72.6401
G1 X72.099 Y17.025 E72.66736
G1 X80.685 Y25.611 E73.31953
G1 X80.178 Y25.611 E73.34679
G1 X71.592 Y17.025 E73.99896
G1 X71.084 Y17.025 E74.02622
G1 X79.67 Y25.611 E74.67839
G1 X79.163 Y25.611 E74.70564
G1 X70.577 Y17.025 E75.35781
G1 X70.069 Y17.025 E75.38507
G1 X78.655 Y25.611 E76.03724
G1 X78.148 Y25.611 E76.0645
G1 X69.562 Y17.025 E76.71667
G1 X69.054 Y17.025 E76.74393
G1 X77.64 Y25.611 E77.3961
G1 X77.133 Y25.611 E77.42336
G1 X68.547 Y17.025 E78.07553
G1 X68.039 Y17.025 E78.10278
G1 X76.625 Y25.611 E78.75495
G1 X76.118 Y25.611 E78.78221
G1 X67.532 Y17.025 E79.43438
G1 X67.024 Y17.025 E79.46164
G1 X75.61 Y25.611 E80.11381
G1 X75.103 Y25.611 E80.14107
G1 X66.517 Y17.025 E80.79324
G1 X66.009 Y17.025 E80.82049
G1 X74.595 Y25.611 E81.47267
G1 X74.088 Y25.611 E81.49992
G1 X65.502 Y17.025 E82.15209
G1 X64.994 Y17.025 E82.17935
G1 X73.58 Y25.611 E82.83152
G1 X73.073 Y25.611 E82.85878
G1 X64.487 Y17.025 E83.51095
G1 X63.979 Y17.025 E83.53821
G1 X72.565 Y25.611 E84.19038
G1 X72.058 Y25.611 E84.21763
G1 X63.472 Y17.025 E84.8698
G1 X62.964 Y17.025 E84.89706
G1 X71.55 Y25.611 E85.54923
G1 X71.043 Y25.611 E85.57649
G1 X62.457 Y17.025 E86.22866
G1 X61.949 Y17.025 E86.25592
G1 X70.535 Y25.611 E86.90809
G1 X70.028 Y25.611 E86.93534
G1 X61.442 Y17.025 E87.58752
G1 X60.934 Y17.025 E87.61477
G1 X69.52 Y25.611 E88.26694
G1 X69.013 Y25.611 E88.2942
G1 X60.427 Y17.025 E88.94637
G1 X59.919 Y17.025 E88.97363
G1 X68.505 Y25.611 E89.6258
G1 X67.998 Y25.611 E89.65306
G1 X59.412 Y17.025 E90.30523
G1 X58.904 Y17.025 E90.33248
G1 X67.49 Y25.611 E90.98465
G1 X66.983 Y25.611 E91.01191
G1 X58.397 Y17.025 E91.66408
G1 X57.889 Y17.025 E91.69134
G1 X66.475 Y25.611 E92.34351
G1 X65.968 Y25.611 E92.37077
G1 X57.382 Y17.025 E93.02294
G1 X56.874 Y17.025 E93.0502
G1 X65.461 Y25.611 E93.70237
G1 X64.953 Y25.611 E93.72962
G1 X56.367 Y17.025 E94.38179
G1 X55.859 Y17.025 E94.40905
G1 X64.446 Y25.611 E95.06122
G1 X63.938 Y25.611 E95.08848
G1 X55.352 Y17.025 E95.74065
G1 X54.844 Y17.025 E95.76791
G1 X63.431 Y25.611 E96.42008
G1 X62.923 Y25.611 E96.44733
G1 X54.337 Y17.025 E97.09951
G1 X53.829 Y17.025 E97.12676
G1 X62.416 Y25.611 E97.77893
G1 X61.908 Y25.611 E97.80619
G1 X53.322 Y17.025 E98.45836
G1 X52.814 Y17.025 E98.48562
G1 X61.401 Y25.611 E99.13779
G1 X60.893 Y25.611 E99.16505
G1 X52.307 Y17.025 E99.81722
G1 X51.799 Y17.025 E99.84447
G1 X60.386 Y25.611 E100.49664
G1 X59.878 Y25.611 E100.5239
G1 X51.292 Y17.025 E101.17607
G1 X50.785 Y17.025 E101.20333
G1 X59.371 Y25.611 E101.8555
G1 X58.863 Y25.611 E101.88276
G1 X50.277 Y17.025 E102.53493
G1 X49.77 Y17.025 E102.56219
G1 X58.356 Y25.611 E103.21436
G1 X57.848 Y25.611 E103.24161
G1 X49.262 Y17.025 E103.89378
G1 X48.755 Y17.025 E103.92104
G1 X57.341 Y25.611 E104.57321
G1 X56.833 Y25.611 E104.60047
G1 X48.247 Y17.025 E105.25264
G1 X47.74 Y17.025 E105.2799
G1 X56.326 Y25.611 E105.93207
G1 X55.818 Y25.611 E105.95932
G1 X47.232 Y17.025 E106.6115
G1 X46.725 Y17.025 E106.63875
G1 X55.311 Y25.611 E107.29092
G1 X54.803 Y25.611 E107.31818
G1 X46.217 Y17.025 E107.97035
G1 X45.71 Y17.025 E107.99761
G1 X54.296 Y25.611 E108.64978
G1 X53.788 Y25.611 E108.67704
G1 X45.202 Y17.025 E109.32921
G1 X44.695 Y17.025 E109.35646
G1 X53.281 Y25.611 E110.00863
G1 X52.773 Y25.611 E110.03589
G1 X44.187 Y17.025 E110.68806
G1 X43.68 Y17.025 E110.71532
G1 X52.266 Y25.611 E111.36749
G1 X51.758 Y25.611 E111.39475
G1 X43.172 Y17.025 E112.04692
G1 X42.665 Y17.025 E112.07417
G1 X51.251 Y25.611 E112.72635
G1 X50.743 Y25.611 E112.7536
G1 X42.157 Y17.025 E113.40577
G1 X41.65 Y17.025 E113.43303
G1 X50.236 Y25.611 E114.0852
